coreui/free/cil-wifi-signal-2.svg

<svg viewBox="0 0 512 512" xmlns="http://www.w3.org/2000/svg"><path d="M503.78 124.25v-.001c-148.77-104.17-346.81-104.17-495.57 0l-.22.14v27.43l78.881 112.66v0l150.897 215.5h36.44l150.9-215.5v0l78.87-112.66v-27.45ZM189.81 355.72l75.96-117.392v0c14.56.57 29.05 2.48 43.27 5.68l-95.22 146ZM170 327.42l-38.27-54.649h-.001c28.93-17.58 61.29-28.79 94.9-32.88Zm63.6 90.83l107.37-164.64v-.001c13.64 5.17 26.78 11.58 39.25 19.15l-124.25 177.44ZM398.61 246.5h0c-87.47-53.87-197.82-53.87-285.28-.001l-73.5-104.976h0c131.69-84.56 300.59-84.56 432.28 0Z"/></svg>

<svg xmlns="http://www.w3.org/2000/svg" viewBox="0 0 512 512">
  <path fill="var(--ci-primary-color, currentColor)" d="M503.785,124.254a432.019,432.019,0,0,0-495.57,0L8,124.4v27.438L86.881,264.5h0L237.778,480h36.444l150.9-215.5h0L504,151.842V124.4ZM189.824,355.724l75.96-117.392a240.089,240.089,0,0,1,43.276,5.686l-95.22,146Zm-19.809-28.291L131.75,272.784a238.218,238.218,0,0,1,94.9-32.873Zm63.606,90.838L340.994,253.632a239.338,239.338,0,0,1,39.256,19.152L256,450.232ZM398.639,246.523a272.034,272.034,0,0,0-285.278,0l-73.5-104.976a400.039,400.039,0,0,1,432.288,0Z" class="ci-primary"/>
</svg>
